X: 1586
T: Jessica's Mountain
C:Jim Moir, 1955 -
B: australian traditional tunes wiki
M:2/4
L:1/16
R: Set Tune
Q: 1/4=100
K:D
V:1 
|:A|"D"d3c d2f2|a2f2d4|"A7"e3f e2d2|c2B2A4|
"D"d3c d2f2|a2f2d4|"A7"g2ag f2e2|B2c2 "D"d3:|
|:A|"D"f2f2 =f^fd2|"A7"c2B2"D"A4|"A7"e4f3e|"D"d2c2 A3A|
"D"f2f2 =f^fd2|"A7"c2B2"D"A4|"A7"e2fe d2c2|B2c2 "D"d3:|
% abcbook-tune_id 6342d53acc2e925e459cbe91


% abcbook-boost 0
% abcbook-tablature 
% abcbook-transpose 
% abcbook-lastupdated 1665324372560
% abcbook-soundfonts 
% abcbook-repeats 1
% NFF Book 2007

